app/public/icons/userAdm.svg

<svg width="36" height="36" viewBox="0 0 36 36" fill="none" xmlns="http://www.w3.org/2000/svg">
<g clip-path="url(#clip0_423_1127)">
<path d="M12.6 0C14.5096 0 16.3409 0.948212 17.6912 2.63604C19.0414 4.32387 19.8 6.61305 19.8 9C19.8 11.3869 19.0414 13.6761 17.6912 15.364C16.3409 17.0518 14.5096 18 12.6 18C10.6904 18 8.85909 17.0518 7.50883 15.364C6.15857 13.6761 5.4 11.3869 5.4 9C5.4 6.61305 6.15857 4.32387 7.50883 2.63604C8.85909 0.948212 10.6904 0 12.6 0ZM10.0294 21.375H15.1706C15.8344 21.375 16.4869 21.4594 17.1112 21.607C16.9931 22.9078 17.5275 24.1102 18.3375 24.757C17.4037 25.5023 16.8356 26.9789 17.2125 28.5047C17.4375 29.4117 17.7412 30.2977 18.135 31.1484C18.5287 31.9992 18.99 32.7727 19.5075 33.4688C20.3906 34.657 21.735 34.7625 22.725 34.0805V34.1438C22.725 34.7906 22.8769 35.4445 23.1694 35.993H1.67062C0.748125 36 0 35.0648 0 33.9117C0 26.9859 4.48875 21.375 10.0294 21.375ZM24.525 15.3422C24.525 14.85 24.7781 14.407 25.1606 14.3016C25.7512 14.1328 26.37 14.0414 27 14.0414C27.63 14.0414 28.2487 14.1328 28.8394 14.3016C29.2219 14.407 29.475 14.85 29.475 15.3422V17.4938C29.9194 17.7328 30.3412 18.0352 30.7294 18.3938L32.13 17.3883C32.4731 17.1422 32.9006 17.1984 33.1706 17.557C33.5981 18.1266 33.975 18.7664 34.3012 19.4695C34.6275 20.1727 34.8806 20.9039 35.0606 21.6492C35.1787 22.1203 34.9987 22.6125 34.6556 22.8586L33.2494 23.8711C33.2719 24.1523 33.2887 24.4406 33.2887 24.7359C33.2887 25.0312 33.2775 25.3125 33.2494 25.6008L34.6556 26.6133C34.9987 26.8594 35.1731 27.3516 35.0606 27.8227C34.875 28.568 34.6219 29.2992 34.3012 30.0023C33.9806 30.7055 33.5981 31.3453 33.1706 31.9148C32.9006 32.2734 32.4675 32.3297 32.13 32.0836L30.7294 31.0781C30.3412 31.4367 29.925 31.7391 29.475 31.9781V34.1297C29.475 34.6219 29.2219 35.0648 28.8394 35.1703C28.2487 35.3391 27.63 35.4305 27 35.4305C26.37 35.4305 25.7512 35.3391 25.1606 35.1703C24.7781 35.0648 24.525 34.6219 24.525 34.1297V31.9781C24.075 31.7391 23.6475 31.4367 23.2594 31.0711L21.87 32.0766C21.5269 32.3227 21.0994 32.2664 20.8294 31.9078C20.4019 31.3383 20.025 30.6984 19.6987 29.9953C19.3725 29.2922 19.1194 28.5609 18.9394 27.8156C18.8212 27.3445 19.0012 26.8523 19.3444 26.6062L20.7394 25.6008C20.7169 25.3125 20.7 25.0242 20.7 24.7289C20.7 24.4336 20.7112 24.1453 20.7394 23.857L19.3387 22.8516C18.9956 22.6055 18.8212 22.1133 18.9337 21.6422C19.1194 20.8969 19.3669 20.1656 19.6931 19.4625C20.0194 18.7594 20.3962 18.1195 20.8237 17.55C21.0937 17.1914 21.5212 17.1352 21.8644 17.3812L23.2594 18.3867C23.6475 18.0281 24.075 17.7258 24.525 17.4797V15.3422ZM29.7056 24.7289C29.7223 24.2723 29.6647 23.8161 29.5364 23.3881C29.4081 22.96 29.2117 22.5689 28.9591 22.2384C28.7065 21.9079 28.4029 21.6448 28.0666 21.4651C27.7304 21.2854 27.3685 21.1927 27.0028 21.1927C26.6371 21.1927 26.2752 21.2854 25.939 21.4651C25.6027 21.6448 25.2991 21.9079 25.0465 22.2384C24.7939 22.5689 24.5975 22.96 24.4692 23.3881C24.3409 23.8161 24.2833 24.2723 24.3 24.7289C24.2833 25.1855 24.3409 25.6417 24.4692 26.0697C24.5975 26.4978 24.7939 26.8889 25.0465 27.2194C25.2991 27.5499 25.6027 27.813 25.939 27.9927C26.2752 28.1724 26.6371 28.2651 27.0028 28.2651C27.3685 28.2651 27.7304 28.1724 28.0666 27.9927C28.4029 27.813 28.7065 27.5499 28.9591 27.2194C29.2117 26.8889 29.4081 26.4978 29.5364 26.0697C29.6647 25.6417 29.7223 25.1855 29.7056 24.7289Z" fill="white"/>
</g>
<defs>
<clipPath id="clip0_423_1127">
<rect width="36" height="36" fill="white"/>
</clipPath>
</defs>
</svg>

<svg xmlns="http://www.w3.org/2000/svg" width="36" height="36" fill="none"><g clip-path="url(#a)"><path fill="#fff" d="M12.6 0c1.91 0 3.74.948 5.091 2.636S19.8 6.613 19.8 9s-.759 4.676-2.109 6.364S14.51 18 12.6 18s-3.74-.948-5.091-2.636S5.4 11.387 5.4 9s.759-4.676 2.109-6.364S10.69 0 12.6 0m-2.57 21.375h5.14c.664 0 1.317.084 1.941.232-.118 1.3.416 2.503 1.226 3.15-.933.745-1.501 2.222-1.125 3.748.226.907.53 1.793.923 2.643.394.851.855 1.625 1.372 2.32.884 1.189 2.228 1.294 3.218.612v.064c0 .647.152 1.3.444 1.849H1.671C.748 36 0 35.065 0 33.912c0-6.926 4.489-12.537 10.03-12.537m14.495-6.033c0-.492.253-.935.636-1.04.59-.17 1.209-.26 1.839-.26s1.249.09 1.84.26c.382.105.635.548.635 1.04v2.152c.444.239.866.541 1.254.9l1.401-1.006c.343-.246.77-.19 1.04.169q.642.857 1.131 1.913c.326.703.58 1.434.76 2.18.118.47-.062.963-.405 1.209l-1.407 1.012c.023.281.04.57.04.865s-.011.576-.04.865l1.407 1.012c.343.246.517.739.405 1.21a12.6 12.6 0 0 1-.76 2.18c-.32.703-.703 1.342-1.13 1.912-.27.358-.703.415-1.041.169l-1.4-1.006a6 6 0 0 1-1.255.9v2.152c0 .492-.253.935-.636 1.04-.59.17-1.209.26-1.839.26s-1.249-.09-1.84-.26c-.382-.105-.635-.548-.635-1.04v-2.152a5.8 5.8 0 0 1-1.266-.907l-1.389 1.006c-.343.246-.77.19-1.04-.17-.428-.569-.805-1.209-1.131-1.912a11.7 11.7 0 0 1-.76-2.18c-.118-.47.062-.963.405-1.209l1.395-1.005c-.022-.288-.039-.577-.039-.872q-.002-.441.04-.872l-1.401-1.005c-.343-.247-.518-.739-.405-1.21.185-.745.433-1.476.76-2.18.325-.703.702-1.343 1.13-1.912.27-.359.697-.415 1.04-.169l1.395 1.006c.389-.359.816-.661 1.266-.907zm5.18 9.387a4.2 4.2 0 0 0-.169-1.34 3.6 3.6 0 0 0-.577-1.15 2.8 2.8 0 0 0-.892-.774 2.25 2.25 0 0 0-1.064-.272 2.25 2.25 0 0 0-1.064.272c-.336.18-.64.443-.892.773a3.6 3.6 0 0 0-.578 1.15 4.2 4.2 0 0 0-.169 1.34c-.017.457.04.914.17 1.342.128.428.324.819.577 1.15s.556.593.892.773.698.272 1.064.272a2.25 2.25 0 0 0 1.064-.272c.336-.18.64-.443.892-.774a3.6 3.6 0 0 0 .577-1.15c.129-.427.186-.883.17-1.34"/></g><defs><clipPath id="a"><path fill="#fff" d="M0 0h36v36H0z"/></clipPath></defs></svg>
